X:1
T:Title
T:Wer ein liebchen hat gefunden
T:Mozart
C:Composer
%%score 1 { ( 2 3 5 ) | 4 }
L:1/8
Q:1/4=70
M:6/8
K:G
V:1 bass nm="Bas" snm="Bs."
V:2 treble nm="Piano" snm="Pno."
V:3 treble 
V:5 treble 
V:4 bass 
V:1
 z2 z | z6 | z4 B,,B,, | E,2 E, E,2 E, | _E,F,B,, z =E,[Q:1/4=69]G, | %5
w: ||Wer ein|Lieb- chen hat ge-|fun- * den die es|
[Q:1/4=68] G,[Q:1/4=70]F,E, E,2 _E, | E,3[Q:1/4=65] z[Q:1/4=70] E,G, | G,F,F, F,2 F, | %8
w: treu- * und red- lich|meint lohn es|ihr- * durch tau- send|
 D,2 F, z E,G, | G,F,F, F,2 F, | _E,2 F, z B,,B,, | G,F,E, E,2 _E, | %12
w: Küs- se Mach ihr|all- * das le- ben|süs- ser Sei ihr|Tröst- * ster, sei ihr|
 E,3[Q:1/4=66] z[Q:1/4=70] B,,B,, | B,A,G, G,2 F, |[Q:1/4=67] E,3[Q:1/4=65] G,,2[Q:1/4=63] F,, | %15
w: Freund, sei ihr|Trö- * ster, sei ihr|Freund, sei ihr|
[Q:1/4=61] E,,3[Q:1/4=70] B,2 B, | %16
w: Freund Tral- la-|
 B,[Q:1/4=69]A,[Q:1/4=68]G,[Q:1/4=67] G,[Q:1/4=66]F,[Q:1/4=65]E, | %17
w: le- * ra tral- * la-|
[Q:1/4=64] E,2 E,[Q:1/4=68] B,2 B, |[Q:1/4=66] B,A,G,[Q:1/4=65] G,(3F,/4G,/4F,/4G,/4F,/4E, | %19
w: le- ra, tra- la-|le- ra tra- la- * * * * * le|
[Q:1/4=63] .E,3[Q:1/4=61] z[Q:1/4=70] B,,B,, |[K:G] E,2 E, E,2 E, | ^D,F,B,, z E,G, | %22
w: ra Doch sie|treu sich zu er-|hal- * ten, schliess' er|
 G,F,E, E,2 ^D, | E,3 z E,G, | G,F,F, F,2 F, | D,2 F, z E,G, |[Q:1/4=68] G,F,F, F,2 F, | %27
w: Lieb- chen- chen sorg- lich|ein; denn die|lo- * sen Ding- er|ha- schen je- den|Schmet- * ter- ling und|
 ^D,2 F, z[Q:1/4=70] B,,B,, | G,F,E, E,2 ^D, | E,3 z B,,B,, | %30
w: na- schen gar zu|gern _ von frem- dem|Wein gar zu|
 B,A,[Q:1/4=69]G,[Q:1/4=68] G,2[Q:1/4=67] F, |[Q:1/4=66] E,2[Q:1/4=64] z/ E,/ G,,2[Q:1/4=63] F,, | %32
w: gern _ von frem- dem|Wein, von frem- dem|
[Q:1/4=62] E,,3[Q:1/4=70] B,2[Q:1/4=69] B, | %33
w: Wein Tra- la-|
[Q:1/4=67] B,A,G,[Q:1/4=65] G,[Q:1/4=64]F,[Q:1/4=630]E, |[Q:1/4=62] E,2 E,[Q:1/4=70] B,2 B, | %35
w: le- * ra, tral- * la-|le- ra, tral- la-|
[Q:1/4=69] B,[Q:1/4=68]A,[Q:1/4=67]G,[Q:1/4=66] G,[Q:1/4=65]F,[Q:1/4=64]E, | %36
w: le- ra, tra- la- * le-|
[Q:1/4=62] .E,3[Q:1/4=50] z[Q:1/4=70] B,,B,, | E,2 E, E,2 E, | ^D,F,B,, z E,G, | G,F,E, E,2 ^D, | %40
w: ra Son- der-|lich beim Mon- den-|schei- * ne, Freun- de,|nehmt _ sie wohl in|
 E,3 z[Q:1/4=135]"^Allegro" E,G, | G,F,F, F,2 F, | D,2 F, z E,G, | G,F,F, F,2 F, | %44
w: acht oft lauscht|da _ ein jun- ges|Herr- chen, kirrt und|lockt _ das klei- ne|
 ^D,2 F,[Q:1/4=50] z"^A tempo"[Q:1/4=70] B,,B,, |[Q:1/4=68] G,F,E, E,2 ^D, | %46
w: Närr- chen und dann|Treu- * e gu- te|
 E,3 z[Q:1/4=70] B,,B,, |[Q:1/4=69] B,[Q:1/4=68]A,[Q:1/4=67]G,[Q:1/4=66] G,2[Q:1/4=65] F, | %48
w: Nacht, und dann|Treu- * e gu- te|
[Q:1/4=64] .E,3 G,,2 F,, |[Q:1/4=61] E,,3[Q:1/4=70] B,2 B, | B,A,G, G,F,E, | E,2 E, B,2 B, | %52
w: Nacht gu- te|Nacht Tra- la-|le- * ra tra- * la-|le- ra, Tra- la-|
 B,A,G, (3G,/4A,/4G,/4A,/4<G,/4F,E, | E,3 z z2 |] %54
w: le- ra, tral- la _ _ _ _ _ le|ra|
V:2
 B2 B | BA.G [B,_EG][A,F].[G,=E] | .[G,B,E]3- [G,B,E] z z | .[G,B,E]3 .[G,B,E]3 | %4
 .[F,B,_E]3 .[B,=EG]3 | GF.E E2 _E | .[G,B,E]3 .[B,EG]3 | .[B,DF]3 .[_DEF]3 | .[B,DF]3 .[B,EG]3 | %9
 .[B,DF]3 .[_DEF]3 | .[B,_EF]3 .[_E,F,B,]3 | E,/G,/B,/G,/B,/G,/ F,/A,/B,/A,/B,/A,/ | %12
 E,/G,/B,/G,/B,/G,/ G,/B,/E/B,/E/B,/ | G,/B,/E/B,/E/B,/ A,/B,/_E/B,/E/B,/ | %14
[K:treble] .[G,E]3 [Beg]2 [A_ef] | .[Ge]3 z BB | BA.G GF.[G,E] | [G,E]3 B2 B | BA.G [_EG]F.=E | %19
 .[G,B,E]3- [G,B,E]3 |[K:G] z Be z ge | z ^df z bg | z fa z B^d | z eB z GE | z ^ef z gf | %25
 z ^ab z ^A,B, | z ^ef z gf | z ^ab z ^A,B, | z Be z e^d | z eg z gb | z Bg z gf | z eG z B^D | %32
 E3 B2 B | BA.G [B,G][A,F].[G,E] | [G,E]3 B2 B | [^EB]A.[=EG] [B,EG][A,^DF].[G,E] | %36
 .[G,B,E]3- [G,B,E]3 | e/^d/e/f/g/f/ e/d/e/f/g/e/ | ^d/e/f/B/^c/d/ e/f/g/a/b/g/ | %39
 f/g/a/b/c'/a/ g/a/b/B/^c/^d/ | e/c/B/A/G/F/ .E3 | .[B,DF]3 .[^CEF]3 | .[B,DF]3 .[B,EG]3 | %43
 .[B,DF]3 .[^CEF]3 | .[B,^DF]3 z3 | z B,E z E^D | z EG z GB | z B,E z .[EG]3/2 z/4 B/4 | %48
 ba.g [eg]2 [ef] | .e3 B2 B | BA.G GF.E | E3 B2 B | [B^c][A^d].[Ge] [Ge](5:4:5d/4e/8d/8e/4d/[Ee] | %53
 [Ee]3 z z2 |] %54
V:3
 [B,E]3 | [CE]3 x3 | x6 | x6 | x6 | [A,C]3 [A,B,]3 | x6 | x6 | x6 | x6 | x6 | x6 | x6 | x6 | %14
[K:treble] x6 | x3 B,3 | C3 .B,3 | x3 [B,E-]3 | E3 x3 | x6 |[K:G] x6 | x6 | x6 | x6 | x6 | x6 | %26
 x6 | x6 | x6 | x6 | x6 | x6 | x3 B,3 | C3 x3 | x3 [DE]3 | C3 x3 | x6 | x6 | x6 | x6 | x6 | x6 | %42
 x6 | x6 | x6 | x6 | x6 | z3 z2 [^DF] | x6 | z3 [B,E]3 | [CE]3 .^D3 | x6 | z3 z .F2 | x3 z z2 |] %54
V:4
 G,,3 | A,,3 B,,3 | .E,,3- E,, z z | .E,,3 .G,,3 | .B,,3 .G,,3 | .A,,3 .B,,3 | .E,,3 .E,3 | %7
 .B,,3 ._B,,3 | .B,,3 .E,3 | .B,,3 ._B,,3 | .B,,3 .B,,,3 | .E,,3 .B,,,3 | .E,,3 .E,,3 | %13
 .E,3 .B,,3 | .E,,3 B,3 | .E3[K:bass] E,3- | E,3 _E,2 =E, | E,3 G,,3 | A,,3 B,,3 | .E,3- E,3 | %20
[K:G] .G,3 .^A,3 | .B,3 .E,3 | .F,3 .A,3 | .G,3 .E,3 | B,,/D,/F,/D,/F,/D,/ ^A,,/^C,/E,/C,/E,/C,/ | %25
 B,,/D,/F,/D,/F,/D,/ E,,/E,/G,/E,/G,/E,/ | B,,/D,/F,/D,/F,/D,/ ^A,,/^C,/E,/C,/E,/C,/ | %27
 B,,/^D,/F,/D,/F,/D,/ B,,/D,/A,/D,/A,/D,/ | E,,/E,/G,/E,/G,/E,/ B,,/F,/A,/F,/A,/F,/ | %29
 G,,/B,,/E,/B,,/E,/B,,/ E,,/B,,/E,/B,,/E,/B,,/ | E,,/E,/G,/E,/G,/E,/ B,,/^D,/A,/D,/A,/D,/ | %31
 .G,3 B,2 A, | G,3 E,3- | E,3 ^D,2 E, | E,3 ^G,,3 | A,,3 B,,3 | .E,3- E,3 | .B,3 .G,3 | .F,3 .E,3 | %39
 .F,3 .G,2 A, | .G,3 .B,3 | .B,,3 .^A,,3 | .B,,3 .E,3 | .B,,3 .^A,,3 | .B,,3 z3 | %45
 E,,/E,/G,/E,/G,/E,/ B,,/F,/A,/F,/A,/F,/ | G,,/B,,/E,/B,,/E,/B,,/ E,,/B,,/E,/B,,/E,/B,,/ | %47
 E,,/E,/G,/E,/G,/E,/ B,,/B,/B,,/B,/B,,/A,/ | .G,3 B,2 A, | .G,3 G,,3 | A,,3 B,A,.G, | G,3 E,3- | %52
 E,2 .^C B,A,.G, | G,3 z z2 |] %54
V:5
 x3 | x6 | x6 | x6 | x6 | x6 | x6 | x6 | x6 | x6 | x6 | x6 | x6 | x6 |[K:treble] x6 | x6 | x6 | %17
 x6 | C3 A,3 | x6 |[K:G] x6 | x6 | x6 | x6 | x6 | x6 | x6 | x6 | x6 | x6 | x6 | x6 | x6 | x6 | x6 | %35
 x6 | x6 | x6 | x6 | x6 | x6 | x6 | x6 | x6 | x6 | x6 | x6 | x6 | x6 | x6 | x6 | x6 | x6 | %53
 x3 z z2 |] %54

